assets/note-2.svg

<svg width="24" height="24" viewBox="0 0 24 24" fill="none" xmlns="http://www.w3.org/2000/svg">
<path d="M15.0599 19.3901C14.4399 19.8101 13.6599 20.1601 12.7099 20.4701L11.1299 20.9901C7.15985 22.2701 5.06985 21.2001 3.77985 17.2301L2.49985 13.2801C1.21985 9.3101 2.27985 7.2101 6.24985 5.9301L7.82985 5.4101C8.23985 5.2801 8.62985 5.1701 8.99985 5.1001C8.69985 5.7101 8.45985 6.4501 8.25985 7.3001L7.27985 11.4901C6.29985 15.6701 7.58985 17.7301 11.7599 18.7201L13.4399 19.1201C14.0199 19.2601 14.5599 19.3501 15.0599 19.3901Z" stroke="#292D32" stroke-width="1.5" stroke-linecap="round" stroke-linejoin="round"/>
<path d="M12.6401 8.52979L17.4901 9.75979" stroke="#292D32" stroke-width="1.5" stroke-linecap="round" stroke-linejoin="round"/>
<path d="M11.6602 12.3999L14.5602 13.1399" stroke="#292D32" stroke-width="1.5" stroke-linecap="round" stroke-linejoin="round"/>
<path d="M20.9602 5.10001C22.0402 6.30001 22.2302 8.02001 21.6602 10.44L20.6802 14.62C19.8402 18.23 18.1802 19.69 15.0602 19.39C14.5602 19.35 14.0202 19.26 13.4402 19.12L11.7602 18.72C7.59018 17.73 6.30018 15.67 7.28018 11.49L8.26018 7.30001C8.46018 6.45001 8.70018 5.71001 9.00018 5.10001C10.1702 2.68001 12.1602 2.03001 15.5002 2.82001L17.1702 3.21001" stroke="#292D32" stroke-width="1.5" stroke-linecap="round" stroke-linejoin="round"/>
</svg>

<svg xmlns="http://www.w3.org/2000/svg" width="24" height="24" fill="none" stroke="#292d32" stroke-width="1.5" stroke-linejoin="round" xmlns:v="https://vecta.io/nano"><path d="M15.06 19.39c-.62.42-1.4.77-2.35 1.08l-1.58.52c-3.97 1.28-6.06.21-7.35-3.76L2.5 13.28c-1.28-3.97-.22-6.07 3.75-7.35l1.58-.52L9 5.1c-.3.61-.54 1.35-.74 2.2l-.98 4.19c-.98 4.18.31 6.24 4.48 7.23l1.68.4c.58.14 1.12.23 1.62.27z"/><g stroke-linecap="round"><path d="M12.64 8.53l4.85 1.23m-5.83 2.64l2.9.74"/><path d="M20.96 5.1c1.08 1.2 1.27 2.92.7 5.34l-.98 4.18c-.84 3.61-2.5 5.07-5.62 4.77-.5-.04-1.04-.13-1.62-.27l-1.68-.4c-4.17-.99-5.46-3.05-4.48-7.23l.98-4.19c.2-.85.44-1.59.74-2.2 1.17-2.42 3.16-3.07 6.5-2.28l1.67.39"/></g></svg>
